X: 34554
T: Ringing The Bell
R: jig
M: 6/8
K: Eminor
|:ABA GAe|ABA gAf|ABA GAe|ABA gAa|
ABA GAe|ABA gAf|ec'e dbd|cac dge:|
|:ABA EAc|~B3 GBd|ecA cBA|~G3 FDC|
~A,3 ABc|dBA GBd|ecA gfd|eAg fdc:|
|:ABA aec|~B3 bgd|aec c'bg|aec' bgd|
ABA aec|~B3 bgd|ec'e dbd|cac dge:|
A3|:aec c'ed|beA aec|c'ed beA|
aec c'ed|beA gec|aed beA|
aec c'ed|beA aec|c'ed beA|
aec c'ed|beA gec|aed beA:|

